X: 31463
T: Paddy Taylor's
R: hornpipe
M: 4/4
K: Dmajor
AF|:(3DEF DF ADFA|dcde fdAF|G2 BG F2 (3DEF|(3GFE AG BGAF|
(3DEF DF ADFA|dcde fdAF|(3GAB Ed cdeg|1 f2 dc d2 AF:|2 f2 dc d2||
|:fg|ag (3fed (3gfe (3cBA|d2 de fdAF|G2 BG FAde|fdgf e2 (3efg|
abaf gage|dcde fdAF|(3GAB ed cdeg|f2 d2 d2:|

